X:1
T:Title
%%score { ( 1 3 ) | ( 2 4 ) }
L:1/8
M:4/4
K:A
V:1 treble nm="Grand Piano"
V:3 treble 
V:2 bass 
V:4 bass 
V:1
 z4 z2[Q:1/4=112] E2 | c6 z2 | c6 z2 | [Ec]2 [Ec]2 [Ed]2 [Ec]2 | F6 F2 | d6 z2 | d6 z2 | %7
 [Fd]2 [Fc]2 [FB]2 [FA]2 | A4 G2 E>E | c2 c2 d2 c2 |[M:3/4] c4 B2 |[M:1/4] E>E | %12
[M:4/4] B2 B2 c2 d2 | d4 c2 [CE]>[CE] | [Ec]2 [Ec]2 [Ed]2 [=Ge]2 | e2 z2 z4 | c4 B4 | [A,CA]6 z2 | %18
 F>^E F>G A2 B2 | c4 F2 F>G | A3 A B2 =c2 | c6 z2 |[M:2/4] F>^E F>G | A2 B2 |[M:4/4] c4 F2 d>d | %25
 c3 B A2 G2 | F6 E>E | c2 c>c d2 c2 |[M:3/4] c4 B2 |[M:1/4] E>E |[M:4/4] B2 B2 c2 d2 | %31
 d4 c2 [CE]>[CE] | [Ec]2 [Ec]2 [Ed]2 [=Ge]2 | e2 z2 z4 | c4 B4 |[M:8/4] [CA]8 z8 |] %36
V:2
 z8 | z2 [A,,A,]2 [A,,A,]2 z2 | z2 [A,,A,]2 [A,,A,]2 [A,,A,]2 | %3
 [A,,A,]2 [A,,A,]2 [B,,G,]2 [C,A,]2 | [D,A,D]6 z2 | z2 [B,,B,]2 [B,,B,]2 z2 | %6
 z2 [B,,B,]2 [B,,B,]2 [B,,B,]2 | [B,,B,]2 [C,^A,]2 [D,B,]2 [^D,=C]2 | C4 z4 | %9
 [A,E]2 [A,E]2 [A,F]2[K:bass] [A,E]2 |[M:3/4] [E,A,E]4 [E,G,E]2 |[M:1/4] [E,G,]>[E,G,] | %12
[M:4/4] [E,G,E]2 [E,G,E]2 [E,A,E]2 [E,B,E]2 | [E,B,E]4 [A,E]2 [A,,A,]>[A,,A,] | %14
 [A,,A,]2 [A,,A,]2 [B,,G,]2 [C,A,]2 | z4 D2 z2 | [E,A,E]4 [E,G,D]4 | A,,6 z2 | %18
 F,>^E, F,>G, A,2 B,2 | C4 F,2 F,>G, | A,3 A, B,2 =C2 | C6 z2 |[M:2/4] F,>^E, F,>G, | A,2 B,2 | %24
[M:4/4] C4 F,2[K:treble] D>D | C3 B, A,2[K:bass] G,2 | F,6 [E,G,]>[E,G,] | %27
 [A,E]2[K:treble] [A,E]>[A,E] [A,F]2[K:bass] [A,E]2 |[M:3/4] [E,A,E]4 [E,G,E]2 | %29
[M:1/4] [E,G,]>[E,G,] |[M:4/4] [E,G,E]2 [E,G,E]2 [E,A,E]2 [E,B,E]2 | %31
 [E,B,E]4 [A,E]2 [A,,A,]>[A,,A,] | [A,,A,]2 [A,,A,]2 [B,,G,]2 [C,A,]2 | z4 D2 z2 | %34
 [E,A,E]4 [E,G,D]4 |[M:8/4] [A,,A,]8 z8 |] %36
V:3
 x8 | z2 E2 E2 E2 | z2 E2 E2 [CE]2 | x8 | x8 | z2 F2 F2 F2 | z2 F2 F2 [Fd]2 | x8 | x8 | x8 | %10
[M:3/4] x6 |[M:1/4] x2 |[M:4/4] x8 | x8 | x8 | F2- [Fd]2 F2 d2 | x8 | x8 | x8 | x8 | x8 | x8 | %22
[M:2/4] x4 | x4 |[M:4/4] x8 | x8 | x8 | x8 |[M:3/4] x6 |[M:1/4] x2 |[M:4/4] x8 | x8 | x8 | %33
 F2- [Fd]2 F2 d2 | x8 |[M:8/4] x16 |] %36
V:4
 x8 | x8 | x8 | x8 | x8 | x8 | x8 | x8 | [E,E]4- [E,B,E]2 [E,G,]>[E,G,] | x6[K:bass] x2 | %10
[M:3/4] x6 |[M:1/4] x2 |[M:4/4] x8 | x8 | x8 | [D,A,]4 [D,A,]2- [D,A,F]2 | x8 | x8 | x8 | x8 | x8 | %21
 x8 |[M:2/4] x4 | x4 |[M:4/4] x6[K:treble] x2 | x6[K:bass] x2 | x8 | x2[K:treble] x4[K:bass] x2 | %28
[M:3/4] x6 |[M:1/4] x2 |[M:4/4] x8 | x8 | x8 | [D,A,]4 [D,A,]2- [D,A,F]2 | x8 |[M:8/4] x16 |] %36

